src/img/icons/brand-05.svg

<svg width="64" height="64" viewBox="0 0 64 64" fill="none" xmlns="http://www.w3.org/2000/svg">
<path fill-rule="evenodd" clip-rule="evenodd" d="M63 32C63 49.1208 49.1208 63 32 63C14.8792 63 1 49.1208 1 32C1 14.8792 14.8792 0.999999 32 0.999999C49.1208 0.999998 63 14.8792 63 32ZM64 32C64 49.6731 49.6731 64 32 64C14.3269 64 2.17128e-06 49.6731 1.39876e-06 32C6.26248e-07 14.3269 14.3269 -6.26248e-07 32 -1.39876e-06C49.6731 -2.17128e-06 64 14.3269 64 32Z" fill="#1B1B1B"/>
<path fill-rule="evenodd" clip-rule="evenodd" d="M44 51C54.4934 51 63 42.4934 63 32C63 21.5066 54.4934 13 44 13C33.5066 13 25 21.5066 25 32C25 42.4934 33.5066 51 44 51ZM44 52C55.0457 52 64 43.0457 64 32C64 20.9543 55.0457 12 44 12C32.9543 12 24 20.9543 24 32C24 43.0457 32.9543 52 44 52Z" fill="#1B1B1B"/>
<path fill-rule="evenodd" clip-rule="evenodd" d="M13 45.9589C6.34121 45.4103 0.999999 39.4296 0.999999 32C1 24.5704 6.34121 18.5897 13 18.0411L13 45.9589ZM13 46.9623C5.73472 46.413 -1.00203e-06 39.924 -6.55667e-07 32C-3.09299e-07 24.076 5.73472 17.587 13 17.0377C13.3303 17.0127 13.6638 17 14 17L14 47C13.6638 47 13.3303 46.9873 13 46.9623Z" fill="#1B1B1B"/>
<path fill-rule="evenodd" clip-rule="evenodd" d="M36 55.9777C23.796 55.4318 14 44.942 14 32C14 19.058 23.796 8.56824 36 8.02233L36 55.9777ZM36 56.9787C23.2089 56.4326 13 45.4582 13 32C13 18.5418 23.2089 7.56741 36 7.02131C36.3316 7.00715 36.665 7 37 7L37 57C36.665 57 36.3316 56.9929 36 56.9787Z" fill="#1B1B1B"/>
</svg>

<svg xmlns="http://www.w3.org/2000/svg" fill="none" viewBox="0 0 64 64"><path fill="#1B1B1B" fill-rule="evenodd" d="M63 32c0 17.12-13.88 31-31 31C14.88 63 1 49.12 1 32 1 14.88 14.88 1 32 1c17.12 0 31 13.88 31 31zm1 0c0 17.673-14.327 32-32 32C14.327 64 0 49.673 0 32 0 14.327 14.327 0 32 0c17.673 0 32 14.327 32 32z" clip-rule="evenodd"/><path fill="#1B1B1B" fill-rule="evenodd" d="M44 51c10.493 0 19-8.507 19-19s-8.507-19-19-19-19 8.507-19 19 8.507 19 19 19zm0 1c11.046 0 20-8.954 20-20s-8.954-20-20-20-20 8.954-20 20 8.954 20 20 20zM13 45.959C6.341 45.41 1 39.429 1 32c0-7.43 5.341-13.41 12-13.959V45.96zm0 1.003C5.735 46.413 0 39.924 0 32c0-7.924 5.735-14.413 13-14.962.33-.025.664-.038 1-.038v30c-.336 0-.67-.013-1-.038z" clip-rule="evenodd"/><path fill="#1B1B1B" fill-rule="evenodd" d="M36 55.978C23.796 55.432 14 44.942 14 32c0-12.942 9.796-23.432 22-23.978v47.956zm0 1C23.209 56.434 13 45.459 13 32 13 18.542 23.209 7.567 36 7.021A23.44 23.44 0 0 1 37 7v50c-.335 0-.668-.007-1-.021z" clip-rule="evenodd"/></svg>
